X:463
T:Xotis Romanes
Z:Jack Campin, http://www.campin.me.uk/
F:Jack Campin's Nine-Note Tunebook
% last edit 02-10-2013
S:http://musicapelsdescosits.blogspot.com.es
S:http://www.youtube.com/watch?v=lbwu-YlZ9Rc
N:originally a klezmer tune
M:4/4
L:1/8
Q:1/4=136
K:DMin %Transposed from AMin
DFAd A2GF|GAGA G4  |GcGc  G2FE |FEFG AGFE|
DFAd A2GF|GAGA G4  |cBAG  AGFE |D8      :|
DFFE EDD2|FAAG GFF2|Acc=B BAA^G|A8       |
GBBA AGG2|FAAG GFF2|AGFF  FEED |D4   z4 :|


% == Arabic songs and dance tunes ===========================================

